X: 57
T: 57. O Traurigkeit, o Herzeleid
N: Derived from chor057.krn
C: Johann Sebastian Bach
%%abc-version 2.0
%%abcx-abcm2ps-target-version 5.9.1 (29 Sep 2008)
%%abc-creator hum2abc beta
%%abcx-conversion-date 2019/03/11 17:28:17
%%abc-edited-by Craig Stuart Sapp
%%humdrum-veritas 1775727699
%%humdrum-veritas-data 2639675778
%%
%%barnumbers 0
L: 1/4
M: C
%%staves [1 2 3 4]
V: 1 clef=treble
V: 2 clef=treble
V: 3 clef=treble-8
V: 4 clef=bass
K: C
[V:1] e [I:setbarnb 1]| 
[V:2] ^G | 
[V:3] B | 
[V:4] E, | 
[V:1] c/B/c!fermata!B^G | 
[V:2] EE/^D/!fermata!EE | 
[V:3] A/^G/^F!fermata!^GB | 
[V:4] A,A,,!fermata!E,=D, | 
[V:1] AA!fermata!^Ge | 
[V:2] E=D!fermata!E^G | 
[V:3] cB/A/!fermata!BB | 
[V:4] C,=F,!fermata!E,E, | 
[V:1] eefe/d/ | 
[V:2] ABA=G | 
[V:3] cBc/d/ e/c/ | 
[V:4] A,^G,A,/B,/C | 
[V:1] d2!fermata!c2 | 
[V:2] AG/=F/!fermata!E2 | 
[V:3] cB!fermata!c2 | 
[V:4] ^F,=G,!fermata!C,2 | 
[V:1] Bcde | 
[V:2] GF/E/ D/d/c | 
[V:3] dcgG/A/ | 
[V:4] G,A,B,C | 
[V:1] dc!fermata!B2 | 
[V:2] BA!fermata!^G2 | 
[V:3] B/E/e!fermata!e2 | 
[V:4] ^G,A,!fermata!E,2 | 
[V:1] ABcd/e/ | 
[V:2] EEEA/=G/ | 
[V:3] e/-d/ d/-c/ c/-B/A | 
[V:4] ^F,^G,A,/=G,/ =F,/E,/ | 
[V:1] B2!fermata!A2 |]  
[V:2] FE/D/!fermata!C2 |]  
[V:3] A^G!fermata!E2 |]  
[V:4] D,E,!fermata!A,,2 |]  



